X:1
T:Courante
T:Gigue
T:Elisabeth Jacquet de la Guerre
T:Suite in D Minor  N°6
%%score { ( 1 3 4 ) | ( 2 5 ) }
L:1/8
Q:1/2=100
M:6/4
K:C
V:1 treble nm="Piano" snm="Pno."
V:3 treble 
V:4 treble 
V:2 bass 
V:5 bass 
V:1
 Md4 A2 Mc3 d c2 |{c} _B6- B3 c B2 | A4- A6- E2 | A4 G4 F2 E2 | MF4 G2 PA4 !turn!B2 | %5
 c2 PB2 A2- A2 PG4 | P^c4 e2 Mg3 a g2 | f6 e6- | e4 Md4 Pc2 B2 |{B} c6- c6- | c6 z2 _B4- | %11
 B4 z2 z2 A4- | A4- A4 G4- | G8 F4 | [A,^CE]12 :: MA4 MB2 c3 B A2 | P^c4 !turn!d2 e6- | %17
 e4 Md4 PA2 G2 | Mc4 M_B2 PA4 G2 | P^F3 E D2- z2 d2 c2 | z2 _B4- B6- | B4 A4 G4 | %22
 [CF]3 E D2 PC4 D2 | ME4 !turn!F2 G4 A2 | M_B3 A G2 d4 e2 | Mf6- f6 | z2 z2 f2 e4 d2 | z2 ^c4- c6 | %28
 z2 z2 A2 z2 d2 c2 | z2 _B6- B4 | A4 F4 E4 | [^F,A,D]12 :| %32
V:2
 z12 | z12 | D4 A,2 C3 D C2 | _B,4 G,2 A,4 A,,2 | z2 z2 E,2 F,4 G,2 | A,6 z2 z2 D,2 | A,,6 A,6- | %7
 z2 z2 E2{F} G3 A G2 | F6 E4 D2 | A,6 A,6 | A,6 PG,3 A, G,2 | z2 z2 E,2 MF,3 G, F,2- | %12
 F,4 F,2 PE,4 D,2 | P^C,6 D,6 | A,,6 MA,,6 :: z12 | E4 F2 G2 PF2 E2 | MF6 E4 D2 | E4 _B,2 C4 A,2 | %19
 D4- DC _B,4 A,2 | G,4 F,2 PE,3 F, G,2 | C,6 A,,2 _B,,2 PC,2 | F,,2 F,2 G,2 A,2 G,2 F,2 | %23
 C2 C,2 D,2 P_E,3 D, C,2 | G,2 G,,3 A,, P_B,,3 A,, G,,2 | D,4 E,2 F,4 D,2 | z2 z2 D2 C4 B,2 | %27
 A,4 G,2 F,4 E,2 | z2 A,4 _B,,4 A,,2 | z6 G,6- | G,6 G,,4 A,,2 | z2 z2 A,,2 MD,6 :| %32
V:3
 x12 | z2 z2 D2 MG6 | G6 x6 | z2 D6 D2 ^C2 | D4 x8 | x6 d4 e2 | z2 A4 e6 | d6 ^c6 | z2 A4 x6 | %9
 z2 z2 E2 MG3 A G2 | z2 ^F2 D2- D6 | z2 G2 C2- C6 | z2 D4 x6 | z2 E2 A,2- A,4 =B,2 | x12 :: x12 | %16
 x12 | z2 A4 x6 | x12 | x6 D6- | D6 G6 | z2 E2 F6 E2 | A,3 x9 | x12 | x12 | z2 z2 Md2 PB4 A2 | %26
 P^G6- G6 | z2 z2 M_B2 PA4 G2 | P^F6- F6 | z2 z2 MG2 F2 E2 D2 | P^C2 A,2 D6 PC2 | x12 :| %32
V:4
 x12 | x12 | x4 F4 x4 | x12 | x12 | x12 | x12 | x12 | x12 | x12 | x12 | x12 | x12 | x12 | x12 :: %15
 x12 | x12 | x12 | x12 | x12 | x12 | x12 | x12 | x12 | x12 | x12 | x12 | x12 | x12 | x12 | x12 | %31
 x12 :| %32
V:5
 x12 | x12 | x12 | x12 | D,6- D,6 | C,6 _B,,6 | x12 | A,6 A,6- | A,6- A,6 | z6 A,,6 | D,6- D,6 | %11
 C,6- C,6 | _B,,6- B,,6 | A,,6 D,4 D,,2 | z2 z2 A,,,2- A,,,6 :: x12 | x12 | x12 | A,4 x8 | x12 | %20
 x12 | x12 | x12 | x12 | x12 | x12 | E,6- E,6 | F,4 G,2 x6 | D,4 C,2 x6 | G,,6- G,,6- | %30
 G,,4 F,,2 x6 | D,,6- D,,6 :| %32

